X:1
T:Southall
R:March
L:1/16
C:John MacLellan, DCM.
M:2/4
K:D
[|: {gef}e>c | {g}A2{GdGe}A>B {gcd}c2{g}B<{d}A | {g}c<e{g}d>f {gef}e2{g}c>d | {g}e>ag<a {fg}f>e{g}c>d | {gef}e>ca>c {gBd}B2{gef}e>c |
 {g}A2{GdGe}A>B {gcd}c2{g}B<{d}A | {g}c<e{g}d>f {gef}e2{g}c>d | {g}e>ag<a {fg}f>ea>c | {g}B<{d}c{e}A2 {GAG}A2 :|]
 [|: {g}c<e | {gfg}f>e{g}f<a {ef}e>c{g}B<d | {g}c<{d}A{d}c<a {gef}e2{g}c>d | {g}e>ag<a {fg}f>e{g}c>d |{gef}e>ca>c {gBd}B2["1" {g}c<e |
  {gfg}f>e{g}f<a {ef}e>c{g}B<d | {g}c<{d}A{d}c<a {gef}e2{g}c>d | {g}e>ag<a {fg}f>ea>c | {g}B<{d}c{e}A2 {GAG}A2 :|]
  ["2" {gef}e>c | {g}A2{GdGe}A>B {gcd}c2{g}B<{d}A | {g}c<e{g}d>f {gef}e2{g}c>d | {g}e>ag<a {fg}f>ea>c | {g}B<{d}c{e}A2 {GAG}A2 ||
  [|: {gef}e>c |{g}A2{GdGe}A>B {gcd}c2>B{g}c<{d}A | {g}c<e{g}d>f {gef}e>A{gef}e>c | {g}A2{GdGe}A>B {gcd}c2>B{g}c<{d}A | {gef}e>ca>c {gBd}B2{gef}e>c |
  {g}A2{GdGe}A>B {gcd}c2>B{g}c<{d}A | {g}c<e{g}d>f {gef}e>A{GdG}c>d | {g}e>ag<a {fg}f>ea>c | {g}B<{d}c{e}A2 {GAG}A2 :|]
  [|: {gf}g2 | a2{GdG}a>e {gfg}f>e{g}c<e |{gAGAG}A>e{g}c<e {gfg}f>e{g}c<e | a2{GdG}a>e {gfg}f>e{g}c<f | {gef}e>ca>c {gBd}B2 ["1" {gf}g2 |
  a2{GdG}a>e {gfg}f>e{g}c<e |{gAGAG}A>e{g}c<e {gfg}f>e{g}c>d | {g}e>ag<a {fg}f>ea>c | {g}B<{d}c{e}A2 {GAG}A2 :|]
  ["2" {gef}e>c |{g}A2{GdGe}A>B {gcd}c2>B{g}c<{d}A | {g}c<e{g}d>f {gef}e>A{GdG}c>d | {g}e>ag<a {fg}f>ea>c | {g}B<{d}c{e}A2 {GAG}A2 |]
